X:1
T:© James Gibb 1997
T:#
T:Communion service in E flat - Gibb
T:#
T:© James Gibb 2013
%%score [ ( 1 2 ) ( 3 4 ) ]
L:1/8
M:5/4
K:Eb
V:1 treble nm="Soprano" snm=" "
V:2 treble 
V:3 bass nm="Bass"
V:4 bass 
V:1
"^¢=90""^Communion Service in E flat"!mp! E4 F2 A2 G2 | G4"^Kyrie" A2 c2 B2 | %2
w: ||
!<(! e4 d2 c2!<)!"^James Gibb\n(1944- )" B2 |!mf! c4 e2 c2 B2 | B4 G2 B2 A2 |!>(! G4 B2 G2!>)! F2 | %6
w: ||||
!mp! E4 F2 A2 G2 |!<(! G4 A2!<)! c2!mf! B2 |!>(! B4 c2!>)! c2!p! e2 |[M:4/4]"^¢=108" z8 | %10
w: ||||
"^Gloria"!mf! E2 GA (3B2 A2 B2 | B2 c4 B2 | A2 FA (3G2 E2 G2 | F8 | G4 A4 | G3 B A3 B | %16
w: ||||||
 (3(c2 B2) A2 (3(G2 A2) G2 | G2 F4 E2 x | G3 G A2 E2 x | A3 A!f! B2 E2 | c3 _d3 BA | G3 F- F4 | %22
w: ||||||
[K:Ab]"^¢=100"!mp! F4 A2 c2 | d8 | c2 A2 G2 AG | G2 F6 |!<(! (F2 A2)!<)! c4 | F2 A2 d3 c | %28
w: ||||||
!mf! c2 Bc d2 B2 | B2 AB!>(! c4-!>)! | c2!mp! F2 F2 F2 | G4 A4- | A2!mf! FA d3 c | c>c Bc d2 BB | %34
w: ||||||
 (B2 AB)!>(! c4-!>)! | c2!mp! F2 F2 F2 |[K:Eb][M:3/2] (G4 =A4- A2)!mf! B2 | %37
w: |||
[M:4/4]"^Tempo primo" G2 F2 E2 FG | B2 cc- c4 |!f! G2 F2 E2 FG | c8 |!ff! B2 B2 c2 _dc | B3 B- B4 | %43
w: ||||||
[M:3/2] =B2 F2 _B6 BB | _G2 A2 B B3- B2 AF |[M:4/4]"^rit." B6 _dc | B2 AG- GA- A2- | A2 A2 B4 | %48
w: |||||
[M:3/4]"^Gospel Responses"!f!"^¢=100" G2 E2 G2 | B4 G2 | c4 B2- | B6 |!f! B2 c2 B2- | B2 A2 B2- | %54
w: ||||||
 B6 ||[K:Ab][M:3/4]"^¢=120"!mf!"^Sursum Corda" z6 | x4 A2 | G2 E2 F2 | A2 B4 | x6 | x4 B2 | %61
w: |||||||
[M:4/4] =A2 F2 G2 B2 |[M:3/4] c6 |[M:4/4] z8 | z4 z4 | A2 B2 c2 d2 | B2 c2 A2 A2 | B4- B2 x2 || %68
w: |||||||
[K:Eb][M:3/4]"^Sanctus""^¢=120"!p! B6 | c6 | A6 | B6 | B4 c2 | e6 |!mf! B4 AB | c2 G4 | B6- | B6 | %78
w: ||||||||||
 B4 c2 | A4 B2 | e2 d2 B2 | c4 B2- | B2!f! z2 G2 | B4 B2- | B2 c2 B2 | c2 e4- | e4 x2 | %87
w: |||||||||
[M:4/4]!mp!"^Benedictus""^¢=100" c c2 e B2 B2 | c2 GA B2!<(! EF!<)! | G6!f! E2 | %90
w: |||
[M:3/2]!<(! B4 B4 c2 B2!<)! |!ff! c2 e2- e6 x2 ||[K:Bb][M:5/4]"^¢=108" z4 | %93
w: |||
"^Acclamations"!f! B4 F2 F4 | d4 B2 B4 | A2 B2 d4 G2 | B6 x4 || %97
w: ||||
[K:Eb][M:3/4]"^Doxology""^¢=120"!mf! G2 E2 G2 | B B3 B2 | A2 B2 c2 |!<(! e4!<)! c2 |!f! f4 e2 | %102
w: |||||
 d2 e2 c2 | B2 B4 | A4 B2- | B6 |[M:4/4]"^Agnus Dei"!p!"^¢=100" z2 (E2 G2) B2 | B6 B2 | %108
w: ||||Lamb * of|God, you|
!<(! B2 AB c2!<)! A2 |[M:3/2]!>(! A2 GA!>)! B6 E2 | E4 E4 F4 |[M:6/4] G6 z2 z4 |[M:4/4] z8 | z8 | %114
w: take a\- * way the|sins of the world, have|||||
[M:3/2] z4 z4!p! z2 E2 |[M:4/4] (E2 C2 D2) E2 |[M:6/4] F2 G4!<(! (E2 G2)!<)! B2 |[M:4/4] c6 d2 | %118
w: ||* * Lamb * of|God, you|
!mf! e2 B2 c2 A2 |!>(! B6 A!>)!G | F6 G2- | G4 A4 |[M:3/2] (A4 G4- G2) z2 | %123
w: take a- way the|sins of the|world, grant|* us|peace. * *|
"^Dismissal""^¢=108"!f! z2 E>E G2 B2 c4 | A2 B2- B6 z2 |] %125
w: ||
V:2
 B,4 D2 E2 E2 | E4 F2 G2 F2 | B4 B2 B2 F2 | B4 B2 B2 F2 | F4 E2 F2 F2 | E4 F2 E2 D2 | E4 D2 D2 D2 | %7
w: Lord, have mer- cy,|Lord, have mer- cy,|Lord, have mer- cy,|Christ, have mer- cy,|Christ, have mer- cy,|Christ, have mer- cy,|Lord, have mer- cy,|
 E4 E2 F2 F2 | G4 F2 A2 G2 |[M:4/4] z8 | E2 GA (3B2 A2 B2 | B2 c4 B2 | A2 FA (3G2 E2 G2 | F8 | %14
w: Lord, have mer- cy,|Lord, have mer- cy.||Glo- ry to God in the|high- est and|peace to his peo- ple on|earth.|
 E4 E4 | E2 D2 E3 F | (3E4 E2 E4 x4/3 | (3_D2 C2 [CB,]4 B,2/3 E3 | x _D C2 B,2 C3 | x C E2 B,2 x2 | %20
w: Lord God,|heaven- ly king, al-|migh- ty God|and Fath- er. We wor-|ship you, we give|you thanks, we|
 E3 E3 EC | C3 C- C4 |[K:Ab] C4 C2 F2 | =E8 | F2 F2 F2 DD | B,2 (A,2 =A,2 B,2) | C4 =E4 | %27
w: praise you for your|glo- ry. *|Lord Jes- us|Christ,|on- ly Son of the|Fa- ther, * *|Lord God,|
 C2 C2 F3 =E | F2 F2 =E2 E2 | D2 DD C4- | C2 C2 E2 D2 | C4 C4- | C2 CC F3 =E | F>F F2 =E2 EE | %34
w: Lamb of God, you|take a- way the|sin of the world,|* have mer- cy|on us,|* you are seat- ed|at the right hand of the|
 D4 C4- | C2 C2 B,2 A,2 |[K:Eb][M:3/2] (=E4 F4- F2) F2 |[M:4/4] E2 D2 C2 DC | G2 FE- E4 | %39
w: Fa- ther,|* re- ceive our|prayer. * * For|you a- lone are the|Ho- ly one, *|
 G2 F2 E2 FG | F8 | B2 A2 _G2 =GG | G3 F- F4 |[M:3/2] =B2 F2 _B6 _GG | E2 E2 A F3- F2 AF | %45
w: you a- lone are the|Lord,|you a- lone are the|most high, *|Je- sus Christ, with the|Ho- ly Spi- rit, * in the|
[M:4/4] B6 _dc | B2 AG- GA- A2- | A2 C2 E4 |[M:3/4] B,2 B,2 E2 | D4 E2 | (G2 F2) E2- | E6 | %52
w: glo- ry of|God the Fa\- * ther, *|* A- men.|Glo- ry to|Christ our|Sav\- * iour.||
 E2 E2 (D2 | E2) E2 E2- | E6 ||[K:Ab][M:3/4] z6 | z4 A2 | G2 E2 F2 | A2 B4 | z6 | z4 B2 | %61
w: Praise to Christ|* our Lord.|||his|Spi- rit is|with us.||we|
[M:4/4] =A2 F2 G2 B2 |[M:3/4] c6 |[M:4/4] z8 | z4 z4 | E2 D2 C2 G2 | G2 C2 D2 C2 | E4- E2 z2 || %68
w: lift them to the|Lord.|||It is right to|give him thanks and|praise. *|
[K:Eb][M:3/4] G6 | A6 | (G4 F2) | G6 | D2 C4 | B,6 | B4 AB | c2 G4 | B6- | B6 | G4 A2 | %79
w: Ho-|ly,|ho\- *|ly,|ho- ly|Lord.|God of *|power~ and|might.||Heaven~ and|
 (G2 F2) G2 | G2 A2 G2 | (G2 F2) G2- | G2 z2 E2 | (E2 D2) (G2 | F2) E2 F2 | F2 E4- | E4 z2 | %87
w: earth * are|full of your|glo\- * ry.|* Ho-|san\- * na|* in the|high- est.||
[M:4/4] c c2 e B2 B2 | c2 GA B2 EF | G6 C2 |[M:3/2] (E2 D2) F4 G2 A2 | A2 G2- G6 z2 || %92
w: Bles- sed is he who|comes in the name of the|Lord. Ho-|san\- * na in the~|~high\- est. *|
[K:Bb][M:5/4] z4 | F4 D2 C4 | G4 D2 E4 | C2 D2 G4 E2 | D6 z4 ||[K:Eb][M:3/4] G2 E2 G2 | B B3 B2 | %99
w: |Christ has died,|Christ is risen,|Christ will come a-|gain.|Bles- sing and|hon- our and|
 A2 B2 c2 | e4 c2 | c4 B2 | A2 B2 A2 | A2 G4 | C4 (D2 | E6) |[M:4/4] x8 | x8 | x8 | %109
w: glo- ry and|power be|yours for|ev- er and|ev- er,|A- men.|||||
[M:3/2] x10 B,2 | C4 B,4 D4 |[M:6/4] E6 z2 z4 |[M:4/4] z8 | z8 |[M:3/2] z4 z4 z2 C2 | %115
w: |mer- cy on|us.||||
[M:4/4] B,6 C2 |[M:6/4] B,2 B,4 x6 |[M:4/4] x8 | x8 | x8 | x6 E2- | E4 (F2 E2) |[M:3/2] E8- E2 z2 | %123
w: * cy|on us.|||||||
 z2 E>E G2 B2 c4 | E2 E2- E6 z2 |] %125
w: In the name of Christ,|A- men. *|
V:3
 G,4 B,2 C2 B,2 | C4 C2 C2 D2 | E4 E2 E2 D2 | E4 E2 E2 E2 | D4 D2 C2 C2 | B,4 B,2 A,2 B,2 | %6
w: ||||||
 G,4 B,2 B,2 B,2 | _D4 C2 E2 =D2 | E4 E2 D2 B,2 |[M:4/4] z8 | x8 | x8 | x8 | x8 | B,4 C4 | %15
w: |||||||||
 C2 B,2 C3 A, | (3(A,2 _D2) C2 (3(B,2 C2) B,2 | A,2 A,4 G,2 x | G,3 E, F,2 G,2 x | E,3 E, G,2 G,2 | %20
w: |||||
 A,3 G,3 G,A, | B,3 A,- A,4 |[K:Ab] F,4 F,2 A,2 | B,8 | A,2 C2 B,2 A,=E, | =E,2 F,6 | F,4 G,4 | %27
w: |||||||
 F,2 F,2 A,3 G, | A,2 DC B,2 B,2 | B,2 CB, A,4- | A,2 A,2 C2 F,2 | =E,4 F,4- | F,2 F,F, A,3 G, | %33
w: ||||||
 A,>A, DC B,2 B,B, | (C2 B,2) A,4- | A,2 A,2 A,2 F,2 |[K:Eb][M:3/2] C8- C2 D2 | %37
w: ||||
[M:4/4] B,2 A,2 G,2 B,A, | B,2 A,C- C4 | G,2 F,2 E,2 F,G, | D8 | B,2 B,2 C2 _DC | B,3 D- D4 | %43
w: ||||||
[M:3/2] =B,2 F,2 _B,6 B,B, | B,2 =B,2 C D3- D2 A,F, |[M:4/4] B,6 _DC | B,2 A,G,- G,A,- A,2- | %47
w: ||||
 A,2 F,2 G,4 |[M:3/4] G,2 G,2 G,2 | (B,2 A,2) C2 | (C2 A,2) B,2- | B,6 | G,2 G,2 (G,2 | %53
w: ||||||
 B,2) C2 (A,2 | G,6) ||[K:Ab][M:3/4] x6 | x4 A,2 | G,2 E,2 F,2 | A,2 B,4 | x6 | x4 B,2 | %61
w: ||||||||
[M:4/4] =A,2 F,2 G,2 B,2 |[M:3/4] C6 |[M:4/4] x8 | x4 x4 | A,2 G,2 A,2 B,2 | D2 C2 F,2 F,2 | %67
w: ||||||
 G,4- G,2 x2 ||[K:Eb][M:3/4] B,6 | D6 | B,6 | B,6 | B,2 A,4 | G,6 | B,4 A,B, | C2 G,4 | B,6- | %77
w: ||||||||||
 B,6 | B,4 D2 | B,4 B,2 | B,2 D2 _D2 | D4 E2- | E2 z2 G,2 | (G,2 B,2) (E2 | D2) C2 D2 | D2 B,4- | %86
w: |||||||||
 B,4 z2 |[M:4/4] C C2 E B,2 B,2 | C2 G,A, B,2 E,F, | G,6 G,2 |[M:3/2] (G,2 B,2) (B,2 D2) (E2 D2) | %91
w: |||||
 D2 B,2- B,6 x2 ||[K:Bb][M:5/4] z4 | D4 B,2 (B,2 A,2) | B,4 G,2 G,4 | F,2 F,2 D4 C2 | B,6 x4 || %97
w: ||||||
[K:Eb][M:3/4] G,2 E,2 G,2 | B, B,3 B,2 | A,2 B,2 C2 | E4 C2 | D4 E2 | F2 E2 F2 | E2 E4 | %104
w: |||||||
 (D2 C2) E2- | E6 |[M:4/4] z8 | z8 | z8 |[M:3/2] z4 z4 z2 G,2 | A,4- A,2 G,2 B,4 | %111
w: |||||||
[M:6/4] B,6 (E,2 G,2) B,2 |[M:4/4] B,6 B,2 |!<(! B,2 A,B, C2!<)! A,2 | %114
w: . Lamb * of|God, you|take a\- * way the|
[M:3/2]!>(! A,2 G,!>)!A, B,6!p! A,2 |[M:4/4] (A,2 G,2 F,2) G,2 |[M:6/4] A,2 G,4 z4 z2 |[M:4/4] z8 | %118
w: sins of the world, have|mer\- * * *|||
 z8 | z8 | z4 z2 C2- | C4 C4 |[M:3/2] B,8- B,2 z2 | x2!f! E,>E, G,2 B,2 C4 | C2 B,2- B,6 z2 |] %125
w: |||||||
V:4
 E,4 B,,2 A,,2 E,2 | C,4 F,2 A,2 B,2 | G,4 G,2 A,2 B,2 | A,4 G,2 A,2 B,2 | B,4 G,2 E,2 E,2 | %5
w: |||||
 E,4 D,2 C,2 B,,2 | E,4 A,2 F,2 G,2 | B,4 A,2 =A,2 B,2 | E4 A,2 B,2 E,2 |[M:4/4] z8 | %10
w: |||||
 [E,G,B,]4 [E,F,B,]4 | [E,F,A,]4 [D,F,A,]4 | [B,,D,F,A,]4 [B,,E,G,]4 | [B,,D,F,]8 | E,4 A,,4 | %15
w: |||||
 C,2 C,2 C,3 D, | (3E,4 E,2 E,4 x4/3 | (3E,2 F,2 [F,_D,]4 _D,2/3 C,3 | x C, C,2 _D,2 C,3 | %19
w: ||||
 x A,, E,2 _D,2 x2 | C,3 B,,3 _D,C, | =E,3 F,- F,4 |[K:Ab] A,,4 F,,2 F,2 | G,8 | %24
w: |||||
 F,2 E,2 D,2 B,,B,, | C,2 D,6 | (A,,2 F,,2) C,4 | D,2 C,2 B,,3 C, | F,2 A,2 A,2 G,2 | %29
w: |||||
 F,2 F,F, F,4- | F,2 D,2 C,2 B,,2 | C,4 F,,4- | F,,2 D,C, B,,3 C, | F,>F, A,2 A,2 G,G, | G,4 F,4- | %35
w: ||||||
 F,2 D,2 D,2 D,2 |[K:Eb][M:3/2] (C,4 F,4- F,2) D,2 |[M:4/4] E,2 B,,2 C,2 B,,C, | E,2 F,G,- G,4 | %39
w: ||||
 G,2 F,2 E,2 F,G, | A,8 | B,2 A,2 _G,2 =E,E, | E,3 B,,- B,,4 |[M:3/2] =B,,2 F,,2 _B,,6 E,E, | %44
w: |||||
 _G,2 =B,,2 _B,, B,,3- B,,2 A,,F,, |[M:4/4] B,,6 _D,C, | B,,2 A,,G,,- G,,A,,- A,,2- | %47
w: |||
 A,,2 B,,2 [E,,E,]4 |[M:3/4] E,2 D,2 C,2 | B,,4 C,2 | A,,4 E,2- | E,6 | E,2 C,2 G,,2- | %53
w: ||||||
 G,,2 A,,2 E,2- | E,6 ||[K:Ab][M:3/4] A,2 A,2 G,2 | A,4 A,2 | G,2 E,2 F,2 | A,2 B,4 | %59
w: ||The Lord is|here *|||
 B,2 B,2 =A,2 | B,4 B,2 |[M:4/4] =A,2 F,2 G,2 B,2 |[M:3/4] C6 |[M:4/4] (3C2 C2 C2 (3C2 C2 C2 | %64
w: Lift up your|hearts: *|||Let us give thanks to the|
 C2 B,2 C4 | C,2 E,2 F,2 E,2 | E,2 F,2 D,2 B,,2 | [E,,E,]4- [E,,E,]2 z2 ||[K:Eb][M:3/4] E,6 | E,6 | %70
w: Lord our God:||||||
 D,6 | E,6 | F,4 B,,2 | E,6 | B,4 A,B, | C2 G,4 | B,6- | B,6 | E,4 E,2 | D,4 E,2 | G,2 F,2 E,2 | %81
w: |||||||||||
 A,,4 G,,2- | G,,2 z2 C,2 | (G,2 F,2) (E,2 | F,2) A,2 A,2 | A,2 E,4- | E,4 x2 | %87
w: ||||||
[M:4/4] C C2 E B,2 B,2 | C2 G,A, B,2 E,F, | G,6 C,2 |[M:3/2] (G,2 F,2) (G,2 A,2) (A,2 B,2) | %91
w: ||||
 E,2 E,2- E,6 z2 ||[K:Bb][M:5/4] z4 | B,4 D,2 F,4 | G,4 G,,2 E,4 | C,2 B,,2 E,4 F,2 | B,,6 z4 || %97
w: ||||||
[K:Eb][M:3/4] G,2 E,2 G,2 | B, B,3 B,2 | A,2 B,2 C2 | E4 C2 | A,4 G,2 | F,2 G,2 D,2 | E,4 G,2 | %104
w: |||||||
 A,4 E,2- | E,6 |[M:4/4] x8 | x8 | x8 |[M:3/2] x10 E,2 | E,4 E,4 A,4 |[M:6/4] E,6 x6 |[M:4/4] z8 | %113
w: |||||||||
 z8 |[M:3/2] z4 z4 z2 A,2 |[M:4/4] (E,4 D,2) C,2 |[M:6/4] B,,2 E,4 z4 z2 |[M:4/4] z8 | z8 | z8 | %120
w: |||||||
 z4 z2 C,2- | C,4 A,,4 |[M:3/2] [E,,E,]8- [E,,E,]2 z2 | [E,,E,]2 E,>E, G,2 B,2 C4 | %124
w: ||||
 A,2 [E,G,]2- [E,G,]6 z2 |] %125
w: |

